packages/symbols/svgs/solid/tags-solid.svg

<svg width="16" height="16" viewBox="0 0 16 16" fill="none" xmlns="http://www.w3.org/2000/svg">
<path fill-rule="evenodd" clip-rule="evenodd" d="M8.5 0L15.707 7.207C15.8945 7.39453 15.9998 7.64884 15.9998 7.914C15.9998 8.17916 15.8945 8.43347 15.707 8.621L14.601 9.727C14.5443 9.64687 14.4818 9.571 14.414 9.5L6.914 2H3V0L8.5 0ZM6.5 3L13.707 10.207C13.8945 10.3945 13.9998 10.6488 13.9998 10.914C13.9998 11.1792 13.8945 11.4335 13.707 11.621L9.621 15.707C9.43347 15.8945 9.17916 15.9998 8.914 15.9998C8.64884 15.9998 8.39453 15.8945 8.207 15.707L1 8.5V3H6.5ZM3.44443 6.83147C3.60888 6.94135 3.80222 7 4 7C4.26522 7 4.51957 6.89464 4.70711 6.70711C4.89464 6.51957 5 6.26522 5 6C5 5.80222 4.94135 5.60888 4.83147 5.44443C4.72159 5.27998 4.56541 5.15181 4.38268 5.07612C4.19996 5.00043 3.99889 4.98063 3.80491 5.01921C3.61093 5.0578 3.43275 5.15304 3.29289 5.29289C3.15304 5.43275 3.0578 5.61093 3.01921 5.80491C2.98063 5.99889 3.00043 6.19996 3.07612 6.38268C3.15181 6.56541 3.27998 6.72159 3.44443 6.83147Z" fill="black"/>
</svg>

<svg width="16" height="16" viewBox="0 0 16 16" xmlns="http://www.w3.org/2000/svg"><path fill-rule="evenodd" clip-rule="evenodd" d="m8.5 0 7.207 7.207a1 1 0 0 1 0 1.414l-1.106 1.106a2.009 2.009 0 0 0-.187-.227L6.914 2H3V0h5.5Zm-2 3 7.207 7.207a1 1 0 0 1 0 1.414l-4.086 4.086a1 1 0 0 1-1.414 0L1 8.5V3h5.5ZM3.444 6.831a1 1 0 1 0 1.112-1.663 1 1 0 0 0-1.112 1.663Z"/></svg>
